flaticon/delivery/crane.svg

<svg xmlns="http://www.w3.org/2000/svg" width="32" height="32" viewBox="0 0 24 24">
    <path d="M 21 15.730469 C 20.820312 14.703125 20.242188 13.859375 19.4375 13.351562 L 6.847656 2.375 C 6.75 1.050781 5.632812 0 4.285156 0 C 2.871094 0 1.714844 1.15625 1.714844 2.570312 C 1.714844 3.839844 2.644531 4.902344 3.855469 5.105469 L 3.855469 8.570312 C 3.855469 8.828125 4.027344 9 4.285156 9 C 5.230469 9 6 9.769531 6 10.714844 C 6 11.65625 5.230469 12.429688 4.285156 12.429688 C 3.34375 12.429688 2.570312 11.65625 2.570312 10.714844 C 2.570312 10.457031 2.398438 10.285156 2.144531 10.285156 C 1.886719 10.285156 1.714844 10.457031 1.714844 10.714844 C 1.714844 12.128906 2.871094 13.285156 4.285156 13.285156 C 5.699219 13.285156 6.855469 12.128906 6.855469 10.714844 C 6.855469 9.445312 5.925781 8.386719 4.714844 8.179688 L 4.714844 5.511719 L 14.066406 16.191406 L 12.855469 23.484375 C 12.855469 23.613281 12.855469 23.742188 12.941406 23.828125 C 13.027344 23.957031 13.15625 24 13.285156 24 L 21.855469 24 C 21.984375 24 22.113281 23.957031 22.199219 23.828125 C 22.285156 23.742188 22.285156 23.613281 22.285156 23.484375 Z M 2.570312 2.570312 C 2.570312 1.628906 3.34375 0.855469 4.285156 0.855469 C 5.230469 0.855469 6 1.628906 6 2.570312 C 6 2.597656 6 2.628906 5.996094 2.65625 C 5.996094 2.667969 5.996094 2.675781 5.996094 2.6875 C 5.996094 2.703125 5.992188 2.722656 5.992188 2.738281 C 5.992188 2.75 5.988281 2.765625 5.988281 2.777344 C 5.984375 2.792969 5.984375 2.804688 5.980469 2.816406 C 5.980469 2.832031 5.976562 2.851562 5.972656 2.867188 C 5.972656 2.875 5.96875 2.886719 5.96875 2.894531 C 5.964844 2.914062 5.960938 2.933594 5.957031 2.949219 C 5.957031 2.957031 5.953125 2.964844 5.953125 2.96875 C 5.945312 2.992188 5.941406 3.011719 5.9375 3.03125 C 5.933594 3.035156 5.933594 3.039062 5.933594 3.042969 C 5.75 3.679688 5.195312 4.171875 4.5 4.242188 C 4.46875 4.253906 4.441406 4.265625 4.410156 4.28125 C 4.371094 4.285156 4.328125 4.285156 4.285156 4.285156 C 3.34375 4.285156 2.570312 3.515625 2.570312 2.570312 Z M 6.730469 3.386719 L 17.476562 12.816406 C 16.007812 12.855469 14.773438 13.808594 14.296875 15.152344 L 5.355469 4.929688 C 6 4.628906 6.515625 4.070312 6.730469 3.386719 Z M 13.800781 23.144531 L 15 15.898438 C 15.214844 14.613281 16.285156 13.714844 17.570312 13.714844 C 17.609375 13.714844 17.648438 13.714844 17.683594 13.71875 C 18.242188 13.742188 18.753906 13.949219 19.15625 14.269531 C 19.179688 14.289062 19.203125 14.300781 19.226562 14.3125 C 19.699219 14.707031 20.03125 15.265625 20.144531 15.898438 L 21.34375 23.144531 Z M 13.800781 23.144531"/>
    <path d="M17.570312 14.570312C16.628906 14.570312 15.855469 15.34375 15.855469 16.285156 15.855469 17.230469 16.628906 18 17.570312 18 18.515625 18 19.285156 17.230469 19.285156 16.285156 19.285156 15.34375 18.515625 14.570312 17.570312 14.570312zM17.570312 17.144531C17.101562 17.144531 16.714844 16.757812 16.714844 16.285156 16.714844 15.8125 17.101562 15.429688 17.570312 15.429688 18.042969 15.429688 18.429688 15.8125 18.429688 16.285156 18.429688 16.757812 18.042969 17.144531 17.570312 17.144531zM5.144531 2.570312C5.144531 2.101562 4.757812 1.714844 4.285156 1.714844 3.8125 1.714844 3.429688 2.101562 3.429688 2.570312 3.429688 3.042969 3.8125 3.429688 4.285156 3.429688 4.757812 3.429688 5.144531 3.042969 5.144531 2.570312zM5.144531 2.570312"/>
</svg>

<svg xmlns="http://www.w3.org/2000/svg" width="32" height="32" viewBox="0 0 24 24">
    <path d="M21 15.73c-.18-1.027-.758-1.87-1.563-2.378L6.848 2.375A2.576 2.576 0 0 0 4.286 0a2.577 2.577 0 0 0-2.57 2.57c0 1.27.93 2.332 2.14 2.535V8.57c0 .258.172.43.43.43C5.23 9 6 9.77 6 10.715a1.72 1.72 0 0 1-1.715 1.715 1.722 1.722 0 0 1-1.715-1.715c0-.258-.172-.43-.425-.43-.258 0-.43.172-.43.43a2.577 2.577 0 0 0 2.57 2.57 2.577 2.577 0 0 0 2.57-2.57 2.58 2.58 0 0 0-2.14-2.535V5.512l9.351 10.68-1.21 7.292c0 .13 0 .258.085.344a.39.39 0 0 0 .344.172h8.57a.39.39 0 0 0 .344-.172c.086-.086.086-.215.086-.344zM2.57 2.57c0-.941.774-1.715 1.715-1.715A1.72 1.72 0 0 1 6 2.57c0 .028 0 .059-.004.086v.031c0 .016-.004.036-.004.051 0 .012-.004.028-.004.04-.004.015-.004.027-.008.038a.229.229 0 0 1-.007.051c0 .008-.004.02-.004.028l-.012.054c0 .008-.004.016-.004.02a.486.486 0 0 0-.016.062c-.003.004-.003.008-.003.012a1.67 1.67 0 0 1-1.434 1.2.893.893 0 0 0-.09.038c-.039.004-.082.004-.125.004A1.72 1.72 0 0 1 2.57 2.57zm4.16.817l10.747 9.43c-1.47.038-2.704.992-3.18 2.335L5.355 4.93C6 4.629 6.515 4.07 6.73 3.387zm7.07 19.758l1.2-7.247a2.58 2.58 0 0 1 2.684-2.18c.558.024 1.07.231 1.472.552a.34.34 0 0 0 .07.043c.473.394.805.953.919 1.585l1.199 7.247zm0 0"/>
    <path d="M17.57 14.57c-.941 0-1.715.774-1.715 1.715A1.72 1.72 0 0 0 17.57 18c.946 0 1.715-.77 1.715-1.715a1.72 1.72 0 0 0-1.715-1.715zm0 2.575a.858.858 0 1 1 .86-.86c0 .473-.387.86-.86.86zm0 0M5.145 2.57a.858.858 0 1 0-.86.86c.473 0 .86-.387.86-.86zm0 0"/>
</svg>
